X: 4336
T: Star Light Night
N: Pub: J. Walsh, London, 1748
Z: 2012 John Chambers <jc:trillian.mit.edu>
M: 2/4
L: 1/16
K: D
%
V: 1
|: a2fg a2fg | a2b2a2g2 | f3ed2c2 | d2A2A4 |\
   a3g f2e2 | A3G F2E2 | a2ba g2f2 | {f}e4 z4 :|
|: e4 fefg | a2g2f2e2 | e4 fefg | a2g2f2e2 |\
   a4 gfge | fefg a4 | A4 GFGE | FEFG A4 |\
   d'2de f2e2 | d4 Hz4 :|
%
V: 2 clef=bass middle=d
|: d2d2d2d2 | d2d2d2d2 | d2d2d2d2 | d2d2d2d2 |\
   d2d2d2d2 | d2d2d2d2 | d2d2d2d2 | A4  z4  :|
|: a2a2a2a2 | a2a2a2a2 | a2a2a2a2 | a2a2a2a2 |\
   d2d2 A2A2 | d2d2d2d2 | d2d2 A2A2 | d2d2d2d2 |\
   f2g2a2A2 | d4 Hz4 :|
%%begintext align
First Man turn the 2d Wo. with his Right hand Single and cast off .|
his Partner the same with the 2d Man :|
Hands 6 round .|
Right and Left at top :|:
%%endtext

%%sep 1 1 500
%%sep 1 1 500

